src/assets/aboutUs/values.svg

<svg fill="none" height="71" viewBox="0 0 89 71" width="89" xmlns="http://www.w3.org/2000/svg" xmlns:xlink="http://www.w3.org/1999/xlink"><linearGradient id="a" gradientUnits="userSpaceOnUse" x1="44.9844" x2="44.9844" y1=".598663" y2="70.5969"><stop offset="0" stop-color="#000080"/><stop offset="1" stop-color="#30d5c8"/></linearGradient><path d="m88.9595 22.5935c-.0034-.0192-.0077-.0392-.012-.0575-.012-.0557-.0266-.1106-.0446-.1654-.0052-.0148-.0103-.0296-.0155-.0444-.0068-.0183-.0137-.0366-.0214-.0549-.0026-.0078-.006-.0156-.0094-.0235-.0043-.0104-.0086-.0209-.0138-.0313-.0017-.0044-.0034-.0087-.006-.0131-.0094-.0217-.0197-.0426-.03-.0635s-.0223-.0418-.0334-.0618c0-.0009-.0009-.0027-.0018-.0035-.0111-.0201-.0231-.0401-.036-.0592-.0128-.0201-.0249-.0392-.0386-.0584-.0137-.02-.0274-.04-.0429-.0592-.0146-.0191-.0291-.0383-.0454-.0566l-.0326-.0383s-.0052-.0069-.0086-.0104l-17.2387-20.6279s-.0034-.00436-.0052-.0061c-.0137-.01654-.0274-.03221-.0428-.04788-.0069-.00784-.0138-.01568-.0215-.02351-.0103-.01132-.0214-.02264-.0317-.03222-.0129-.01393-.0266-.02612-.0403-.03918-.0043-.00435-.0095-.0087-.0146-.01306-.0172-.015669-.0352-.031341-.0532-.046142-.0026-.002612-.006-.005224-.0094-.007836-.0549-.044404-.1124-.085325-.1725-.121023-.0214-.013931-.0437-.02612-.066-.038309-.0275-.015672-.0558-.029603-.0841-.042663-.072-.033956-.1466-.062688-.2238-.084455-.0112-.004353-.0223-.006965-.0335-.009577-.0214-.006095-.0429-.011319-.0652-.016543-.0549-.01306-.1115-.021767-.1681-.027861-.0258-.002612-.0515-.005224-.0772-.006095-.0043 0-.0086-.000871-.0129-.000871-.0266-.001741-.0523-.002612-.0789-.002612h-50.2871c-.0257 0-.0523.000871-.078.002612-.0052 0-.0103.000871-.0155.000871-.0248 0-.0497.003483-.0746.006095-.0566.005224-.1132.014801-.169.027861-.024.005224-.048.011319-.0712.018284-.0085.001741-.0171.004353-.0257.006965-.0772.022638-.1527.05137-.2256.085326-.0283.01306-.0566.026991-.084.042663-.0223.012189-.0447.024378-.0661.038309-.06.035698-.1175.076619-.1724.121023-.0034.002612-.0069.005224-.0094.007836-.0181.014801-.0361.030473-.0532.046142-.0052.00436-.0103.00871-.0146.01306-.0137.01306-.0275.02525-.0403.03918-.0103.00958-.0215.0209-.0318.03222-.0077.00783-.0145.01567-.0214.02351-.0154.01567-.0292.03134-.0429.04788-.0017.00174-.0034.00436-.0051.0061l-17.24732 20.6383-.0326.0383c-.00515.0061-.00944.0114-.01372.0174-.00344.0061-.00858.0114-.01287.0175-.00944.013-.01973.0252-.03002.0383-.03946.0513-.07463.1053-.10637.1602 0 .0017-.00085.0026-.00171.0035-.02316.0409-.04461.0827-.06348.1253-.01029.0218-.01973.0436-.0283.0653-.00944.0218-.01716.0436-.02488.0662-.00858.0218-.01544.0435-.0223.0662-.00686.0217-.01373.0444-.01887.067-.00601.0227-.01201.0453-.0163.0679-.00429.0192-.00858.0392-.01201.0592-.00257.0148-.00515.0296-.00686.0453-.002575.0157-.005148.0305-.006864.0462-.001715.0217-.004289.0435-.006004.0653-.003431.0426-.005147.0844-.005147.1271 0 .0243 0 .0496.001716.074.001715.0374.005146.0757.009435.1132.001716.0182.004289.0357.006864.0539.01286.0836.03174.1672.05747.2482.006.02.01287.0392.01973.0583.01372.0383.0283.0758.0446.1123.01716.0383.03517.0749.05576.1115.00858.0165.01715.0322.02659.0479.00772.0148.0163.0287.02487.0418.00944.0148.01888.0287.02831.0435.01716.0244.03431.0496.05233.0731.01543.0201.03087.0392.04631.0584.0163.0191.03346.0391.05147.0583l.03345.0357 42.33982 46.0279c.0145.0174.03.0348.0463.0514.0188.02.0377.04.0574.0592.0078.0087.0155.0165.0232.0226.0017.0026.0034.0044.0052.0052h.0017c.0094.0087.0197.0183.03.027.0009.0009.0017.0018.0017.0026.0017.0018.0034.0035.006.0044.0009.0017.0017.0026.0026.0026.0086.0078.0163.0148.0249.0209.0017.0026.0025.0035.0043.0035.0034.0034.0077.0069.012.0104.0034.0026.0077.0061.0111.0087s.0069.0052.0103.0079c.0034.0034.0069.0069.0112.0087.012.0104.0257.02.0386.0296.0025.0017.0051.0043.0085.0052.0112.0078.0215.0157.0326.0226.0103.0079.0215.0148.0326.0209.006.0053.0112.0087.0172.0113h.0008c.0086.007.018.0122.0266.0175.0069.0034.0146.0078.0223.0121.0026.0027.006.0044.0086.0053.0206.0113.0412.0226.0626.0331.0163.0087.0326.0165.0498.0243.0197.0096.0394.0183.06.0262.006.0026.012.0043.018.0069.0035.0018.0069.0026.0103.0035.0017.0009.0035.0017.0052.0017.0137.0061.0283.0114.042.0157.0043.0018.0077.0035.012.0052.0094.0035.0189.007.0292.0096.0154.0044.0317.0096.0472.0139.0137.0044.0274.0088.0411.0114.0103.0026.0215.0061.0318.0078.0111.0026.0214.0052.0326.007.0248.0052.0497.0095.0746.0139.0026.0009.0051.0009.0077.0009.0257.0043.0523.0078.0781.0104.0257.0026.0506.0052.0763.007h.0232c.0206 0 .042.0017.0634.0017.0215 0 .0446-.0008.0661-.0017h.0034.012.0035s.0034 0 .006-.0009h.0034c.0111 0 .0223-.0017.0326-.0026.012-.0009.024-.0017.036-.0035.0275-.0026.0541-.0061.0807-.0104.0068-.0009.0137-.0018.0205-.0026.0069-.0009.0129-.0027.0198-.0044.0128-.0017.0257-.0052.0394-.0078.024-.0044.0472-.0096.0704-.0157.0377-.0105.0754-.0218.1123-.034.0086-.0034.0172-.0061.0266-.0104.0017 0 .0026 0 .0043-.0009.0094-.0035.0197-.0069.0292-.0113.0343-.0131.0677-.027.1012-.0427.0094-.0043.0189-.0095.0283-.0139.0026-.0017.0051-.0026.0077-.0043.0069-.0027.0129-.0061.0189-.0096.006-.0026.012-.0052.0171-.0087.0069-.0035.0138-.007.0198-.0113.0051-.0027.0103-.0053.0154-.0088.0069-.0043.0137-.0078.0215-.0121.0042-.0018.0077-.0044.0111-.007.0069-.0044.0146-.0087.0215-.0139.0051-.0026.0102-.0053.0145-.0087.0043-.0027.0086-.0053.012-.0079.0086-.0052.0163-.0104.0241-.0157.006-.0034.012-.0069.0171-.0113.0069-.0043.0137-.0095.0206-.0148.0146-.0104.0283-.0209.042-.0322.0026-.0017.0043-.0035.0069-.0043.0017-.0009.0043-.0027.006-.0044.012-.0096.024-.0191.036-.0305.0103-.0078.0206-.0165.0301-.0261.0017 0 .0025-.0017.0042-.0035.0129-.0104.0249-.0217.0369-.0339.0052-.0035.0095-.0079.0137-.0131.0078-.007.0155-.0139.0224-.0218.024-.0235.0471-.0487.0694-.074l42.3664-46.0575c.024-.0252.0472-.0513.0686-.0774.0112-.0131.0223-.027.0326-.0401.0832-.1045.1527-.2194.2067-.3413.0086-.0183.0163-.0374.0241-.0566.0394-.0966.0694-.1976.0883-.3012.0043-.0209.0077-.0418.0112-.0627.0025-.0183.0051-.0357.0068-.054.0026-.0209.0043-.0409.006-.0618.0017-.0174.0026-.034.0035-.0514.0008-.0244.0017-.0496.0017-.074 0-.0949-.0077-.1898-.0249-.2856zm-20.0771 7.957c-.0137.0174-.0274.0349-.0412.0523-.0008.0017-.0025.0026-.0042.0043.0154-.0183.03-.0374.0454-.0566zm-2.5553-4.147-18.1265-15.2567 20.1268-6.66234zm1.6289 1.3713-.1724.0584.0172-.189zm-47.1107 1.2965c-.0686.2072-.0935.4266-.0755.6443l-.0635-.6914zm.7952-24.58684 20.1276 6.66234-18.1265 15.2567zm23.3434 8.12334 18.2578 15.3664h-36.5146zm15.1955-8.80159-15.1955 5.02985-15.1954-5.02985zm-41.5609 2.34296 1.9291 21.12943-15.26577-5.1709zm-10.65269 20.25003 13.31349 4.51 15.2393 26.5311zm36.08919 41.0285.0146-.0253.0626.108zm.9289-1.6186-19.8892-34.6265h39.7785zm8.4671-8.3706 15.2384-26.5293 13.3135-4.51zm15.9701-30.1599 1.9291-21.12855 13.3367 15.95765z" fill="url(#a)"/></svg>

<svg width="89" height="71" viewBox="0 0 89 71" fill="none" xmlns="http://www.w3.org/2000/svg">
<path d="M88.9595 22.5935C88.9561 22.5743 88.9518 22.5543 88.9475 22.536C88.9355 22.4803 88.9209 22.4254 88.9029 22.3706C88.8977 22.3558 88.8926 22.341 88.8874 22.3262C88.8806 22.3079 88.8737 22.2896 88.866 22.2713C88.8634 22.2635 88.86 22.2557 88.8566 22.2478C88.8523 22.2374 88.848 22.2269 88.8428 22.2165C88.8411 22.2121 88.8394 22.2078 88.8368 22.2034C88.8274 22.1817 88.8171 22.1608 88.8068 22.1399C88.7965 22.119 88.7845 22.0981 88.7734 22.0781C88.7734 22.0772 88.7725 22.0754 88.7716 22.0746C88.7605 22.0545 88.7485 22.0345 88.7356 22.0154C88.7228 21.9953 88.7107 21.9762 88.697 21.957C88.6833 21.937 88.6696 21.917 88.6541 21.8978C88.6395 21.8787 88.625 21.8595 88.6087 21.8412L88.5761 21.8029C88.5761 21.8029 88.5709 21.796 88.5675 21.7925L71.3288 1.1646C71.3288 1.1646 71.3254 1.16024 71.3236 1.1585C71.3099 1.14196 71.2962 1.12629 71.2808 1.11062C71.2739 1.10278 71.267 1.09494 71.2593 1.08711C71.249 1.07579 71.2379 1.06447 71.2276 1.05489C71.2147 1.04096 71.201 1.02877 71.1873 1.01571C71.183 1.01136 71.1778 1.00701 71.1727 1.00265C71.1555 0.986981 71.1375 0.971309 71.1195 0.956508C71.1169 0.953896 71.1135 0.951284 71.1101 0.948672C71.0552 0.904268 70.9977 0.863347 70.9376 0.827649C70.9162 0.813718 70.8939 0.801529 70.8716 0.78934C70.8441 0.773668 70.8158 0.759737 70.7875 0.746677C70.7155 0.712721 70.6409 0.683989 70.5637 0.662222C70.5525 0.657869 70.5414 0.655257 70.5302 0.652645C70.5088 0.64655 70.4873 0.641326 70.465 0.636102C70.4101 0.623042 70.3535 0.614335 70.2969 0.608241C70.2711 0.605629 70.2454 0.603017 70.2197 0.602146C70.2154 0.602146 70.2111 0.601275 70.2068 0.601275C70.1802 0.599534 70.1545 0.598663 70.1279 0.598663H19.8408C19.8151 0.598663 19.7885 0.599534 19.7628 0.601275C19.7576 0.601275 19.7525 0.602146 19.7473 0.602146C19.7225 0.602146 19.6976 0.605629 19.6727 0.608241C19.6161 0.613465 19.5595 0.623042 19.5037 0.636102C19.4797 0.641326 19.4557 0.647421 19.4325 0.654386C19.424 0.656127 19.4154 0.658739 19.4068 0.661351C19.3296 0.683989 19.2541 0.712721 19.1812 0.746677C19.1529 0.759737 19.1246 0.773668 19.0972 0.78934C19.0749 0.801529 19.0525 0.813718 19.0311 0.827649C18.9711 0.863347 18.9136 0.904268 18.8587 0.948672C18.8553 0.951284 18.8518 0.953896 18.8493 0.956508C18.8312 0.971309 18.8132 0.986981 18.7961 1.00265C18.7909 1.00701 18.7858 1.01136 18.7815 1.01571C18.7678 1.02877 18.754 1.04096 18.7412 1.05489C18.7309 1.06447 18.7197 1.07579 18.7094 1.08711C18.7017 1.09494 18.6949 1.10278 18.688 1.11062C18.6726 1.12629 18.6588 1.14196 18.6451 1.1585C18.6434 1.16024 18.6417 1.16286 18.64 1.1646L1.39268 21.8029L1.36008 21.8412C1.35493 21.8473 1.35064 21.8526 1.34636 21.8586C1.34292 21.8647 1.33778 21.87 1.33349 21.8761C1.32405 21.8891 1.31376 21.9013 1.30347 21.9144C1.26401 21.9657 1.22884 22.0197 1.1971 22.0746C1.1971 22.0763 1.19625 22.0772 1.19539 22.0781C1.17223 22.119 1.15078 22.1608 1.13191 22.2034C1.12162 22.2252 1.11218 22.247 1.10361 22.2687C1.09417 22.2905 1.08645 22.3123 1.07873 22.3349C1.07015 22.3567 1.06329 22.3784 1.05643 22.4011C1.04957 22.4228 1.0427 22.4455 1.03756 22.4681C1.03155 22.4908 1.02555 22.5134 1.02126 22.536C1.01697 22.5552 1.01268 22.5752 1.00925 22.5952C1.00668 22.61 1.0041 22.6248 1.00239 22.6405C0.999815 22.6562 0.997242 22.671 0.995526 22.6867C0.993811 22.7084 0.991237 22.7302 0.989522 22.752C0.986091 22.7946 0.984375 22.8364 0.984375 22.8791C0.984375 22.9034 0.984375 22.9287 0.986091 22.9531C0.987806 22.9905 0.991237 23.0288 0.995526 23.0663C0.997242 23.0845 0.999815 23.102 1.00239 23.1202C1.01525 23.2038 1.03413 23.2874 1.05986 23.3684C1.06586 23.3884 1.07273 23.4076 1.07959 23.4267C1.09331 23.465 1.10789 23.5025 1.12419 23.539C1.14135 23.5773 1.15936 23.6139 1.17995 23.6505C1.18853 23.667 1.1971 23.6827 1.20654 23.6984C1.21426 23.7132 1.22284 23.7271 1.23141 23.7402C1.24085 23.755 1.25029 23.7689 1.25972 23.7837C1.27688 23.8081 1.29403 23.8333 1.31205 23.8568C1.32748 23.8769 1.34292 23.896 1.35836 23.9152C1.37466 23.9343 1.39182 23.9543 1.40983 23.9735L1.44328 24.0092L43.7831 70.0371C43.7976 70.0545 43.8131 70.0719 43.8294 70.0885C43.8482 70.1085 43.8671 70.1285 43.8868 70.1477C43.8946 70.1564 43.9023 70.1642 43.91 70.1703C43.9117 70.1729 43.9134 70.1747 43.9152 70.1755C43.916 70.1755 43.916 70.1755 43.9169 70.1755C43.9263 70.1842 43.9366 70.1938 43.9469 70.2025C43.9478 70.2034 43.9486 70.2043 43.9486 70.2051C43.9503 70.2069 43.952 70.2086 43.9546 70.2095C43.9555 70.2112 43.9563 70.2121 43.9572 70.2121C43.9658 70.2199 43.9735 70.2269 43.9821 70.233C43.9838 70.2356 43.9846 70.2365 43.9864 70.2365C43.9898 70.2399 43.9941 70.2434 43.9984 70.2469C44.0018 70.2495 44.0061 70.253 44.0095 70.2556C44.0129 70.2582 44.0164 70.2608 44.0198 70.2635C44.0232 70.2669 44.0267 70.2704 44.031 70.2722C44.043 70.2826 44.0567 70.2922 44.0696 70.3018C44.0721 70.3035 44.0747 70.3061 44.0781 70.307C44.0893 70.3148 44.0996 70.3227 44.1107 70.3296C44.121 70.3375 44.1322 70.3444 44.1433 70.3505C44.1493 70.3558 44.1545 70.3592 44.1605 70.3618H44.1613C44.1699 70.3688 44.1793 70.374 44.1879 70.3793C44.1948 70.3827 44.2025 70.3871 44.2102 70.3914C44.2128 70.3941 44.2162 70.3958 44.2188 70.3967C44.2394 70.408 44.26 70.4193 44.2814 70.4298C44.2977 70.4385 44.314 70.4463 44.3312 70.4541C44.3509 70.4637 44.3706 70.4724 44.3912 70.4803C44.3972 70.4829 44.4032 70.4846 44.4092 70.4872C44.4127 70.489 44.4161 70.4898 44.4195 70.4907C44.4212 70.4916 44.423 70.4924 44.4247 70.4924C44.4384 70.4985 44.453 70.5038 44.4667 70.5081C44.471 70.5099 44.4744 70.5116 44.4787 70.5133C44.4881 70.5168 44.4976 70.5203 44.5079 70.5229C44.5233 70.5273 44.5396 70.5325 44.5551 70.5368C44.5688 70.5412 44.5825 70.5456 44.5962 70.5482C44.6065 70.5508 44.6177 70.5543 44.628 70.556C44.6391 70.5586 44.6494 70.5612 44.6606 70.563C44.6854 70.5682 44.7103 70.5725 44.7352 70.5769C44.7378 70.5778 44.7403 70.5778 44.7429 70.5778C44.7686 70.5821 44.7952 70.5856 44.821 70.5882C44.8467 70.5908 44.8716 70.5934 44.8973 70.5952H44.9205C44.9411 70.5952 44.9625 70.5969 44.9839 70.5969C45.0054 70.5969 45.0285 70.5961 45.05 70.5952H45.0534C45.0534 70.5952 45.0611 70.5952 45.0654 70.5952H45.0689C45.0689 70.5952 45.0723 70.5952 45.0749 70.5943H45.0783C45.0894 70.5943 45.1006 70.5926 45.1109 70.5917C45.1229 70.5908 45.1349 70.59 45.1469 70.5882C45.1744 70.5856 45.201 70.5821 45.2276 70.5778C45.2344 70.5769 45.2413 70.576 45.2481 70.5752C45.255 70.5743 45.261 70.5725 45.2679 70.5708C45.2807 70.5691 45.2936 70.5656 45.3073 70.563C45.3313 70.5586 45.3545 70.5534 45.3777 70.5473C45.4154 70.5368 45.4531 70.5255 45.49 70.5133C45.4986 70.5099 45.5072 70.5072 45.5166 70.5029C45.5183 70.5029 45.5192 70.5029 45.5209 70.502C45.5303 70.4985 45.5406 70.4951 45.5501 70.4907C45.5844 70.4776 45.6178 70.4637 45.6513 70.448C45.6607 70.4437 45.6702 70.4385 45.6796 70.4341C45.6822 70.4324 45.6847 70.4315 45.6873 70.4298C45.6942 70.4271 45.7002 70.4237 45.7062 70.4202C45.7122 70.4176 45.7182 70.415 45.7233 70.4115C45.7302 70.408 45.7371 70.4045 45.7431 70.4002C45.7482 70.3975 45.7534 70.3949 45.7585 70.3914C45.7654 70.3871 45.7722 70.3836 45.78 70.3793C45.7842 70.3775 45.7877 70.3749 45.7911 70.3723C45.798 70.3679 45.8057 70.3636 45.8126 70.3584C45.8177 70.3558 45.8228 70.3531 45.8271 70.3497C45.8314 70.347 45.8357 70.3444 45.8391 70.3418C45.8477 70.3366 45.8554 70.3314 45.8632 70.3261C45.8692 70.3227 45.8752 70.3192 45.8803 70.3148C45.8872 70.3105 45.894 70.3053 45.9009 70.3C45.9155 70.2896 45.9292 70.2791 45.9429 70.2678C45.9455 70.2661 45.9472 70.2643 45.9498 70.2635C45.9515 70.2626 45.9541 70.2608 45.9558 70.2591C45.9678 70.2495 45.9798 70.24 45.9918 70.2286C46.0021 70.2208 46.0124 70.2121 46.0219 70.2025C46.0236 70.2025 46.0244 70.2008 46.0261 70.199C46.039 70.1886 46.051 70.1773 46.063 70.1651C46.0682 70.1616 46.0725 70.1572 46.0767 70.152C46.0845 70.145 46.0922 70.1381 46.0991 70.1302C46.1231 70.1067 46.1462 70.0815 46.1685 70.0562L88.5349 23.9987C88.5589 23.9735 88.5821 23.9474 88.6035 23.9213C88.6147 23.9082 88.6258 23.8943 88.6361 23.8812C88.7193 23.7767 88.7888 23.6618 88.8428 23.5399C88.8514 23.5216 88.8591 23.5025 88.8669 23.4833C88.9063 23.3867 88.9363 23.2857 88.9552 23.1821C88.9595 23.1612 88.9629 23.1403 88.9664 23.1194C88.9689 23.1011 88.9715 23.0837 88.9732 23.0654C88.9758 23.0445 88.9775 23.0245 88.9792 23.0036C88.9809 22.9862 88.9818 22.9696 88.9827 22.9522C88.9835 22.9278 88.9844 22.9026 88.9844 22.8782C88.9844 22.7833 88.9767 22.6884 88.9595 22.5926V22.5935ZM68.8824 30.5505C68.8687 30.5679 68.855 30.5854 68.8412 30.6028C68.8404 30.6045 68.8387 30.6054 68.837 30.6071C68.8524 30.5888 68.867 30.5697 68.8824 30.5505ZM66.3271 26.4035L48.2006 11.1468L68.3274 4.48446L66.3271 26.4035ZM67.956 27.7748L67.7836 27.8332L67.8008 27.6442L67.956 27.7748ZM20.8453 29.0713C20.7767 29.2785 20.7518 29.4979 20.7698 29.7156L20.7063 29.0242L20.8453 29.0713ZM21.6405 4.48446L41.7681 11.1468L23.6416 26.4035L21.6405 4.48446ZM44.9839 12.6078L63.2417 27.9742H26.7271L44.9839 12.6078ZM60.1794 3.80621L44.9839 8.83606L29.7885 3.80621H60.1794ZM18.6185 6.14917L20.5476 27.2786L5.28183 22.1077L18.6185 6.14917ZM7.96581 26.3992L21.2793 30.9092L36.5186 57.4403L7.96581 26.3992ZM44.055 67.4277L44.0696 67.4024L44.1322 67.5104L44.055 67.4277ZM44.9839 65.8091L25.0947 31.1826H64.8732L44.9839 65.8091ZM53.451 57.4385L68.6894 30.9092L82.0029 26.3992L53.451 57.4385ZM69.4211 27.2786L71.3502 6.15005L84.6869 22.1077L69.4211 27.2786Z" fill="url(#paint0_linear_565_4390)"/>
<defs>
<linearGradient id="paint0_linear_565_4390" x1="44.9844" y1="0.598663" x2="44.9844" y2="70.5969" gradientUnits="userSpaceOnUse">
<stop stop-color="#000080"/>
<stop offset="1" stop-color="#30D5C8"/>
</linearGradient>
</defs>
</svg>
